!!!!SEGMENT: Snf0331-Vivo_ego_dicit_Dominus--Copenhagen_1872.krn
!!!id: Snf0331
!!!AGN: Motet
!!!voices: 3
!!!COM: Ludwig Senfl
!!!OTL: Vivo ego, dicit Dominus (Copenhagen 1872)
**kern	**text	**kern	**text	**kern	**text	**kern	**text	**kern	**text
*part5	*part5	*part4	*part4	*part3	*part3	*part2	*part2	*part1	*part1
*staff5	*staff5	*staff4	*staff4	*staff3	*staff3	*staff2	*staff2	*staff1	*staff1
*I"Bassus	*	*I"Tenor II	*	*I"Tenor I	*	*I"Altus	*	*I"Superius	*
*I'B	*	*I'T. II	*	*I'T. I	*	*I'A	*	*I'S	*
*clefF4	*	*clefGv2	*	*clefGv2	*	*clefG2	*	*clefG2	*
*k[b-]	*	*k[b-]	*	*k[b-]	*	*k[b-]	*	*k[b-]	*
*F:	*	*F:	*	*F:	*	*F:	*	*F:	*
*M3/1	*	*M3/1	*	*M3/1	*	*M3/1	*	*M3/1	*
*met(O|)	*	*met(O|)	*	*met(O|)	*	*met(O|)	*	*met(O|)	*
!!section: Prima pars: Vivo ego, dicit Dominus
!!!OMD: Prima pars: Vivo ego, dicit Dominus
=1	=1	=1	=1	=1	=1	=1	=1	=1	=1
0.r	.	0.r	.	0.r	.	1f	Vi-	0ff	Vi-
.	.	.	.	.	.	2f	-vo	.	.
.	.	.	.	.	.	2.d	e-	.	.
.	.	.	.	.	.	.	.	1ff	-vo
.	.	.	.	.	.	4e	.	.	.
.	.	.	.	.	.	2f	.	.	.
=2	=2	=2	=2	=2	=2	=2	=2	=2	=2
0.r	.	1r	.	0.r	.	2B-y	-go,	2.dd	e-
.	.	.	.	.	.	2.b-y	e-	.	.
.	.	.	.	.	.	.	.	4cc	.
.	.	1r	.	.	.	.	.	4dd	.
.	.	.	.	.	.	4a	.	4ee	.
.	.	.	.	.	.	2f	.	1ff	.
.	.	2r	.	.	.	1g	.	.	.
.	.	[2c	Vi-	.	.	.	.	2ee	.
=3	=3	=3	=3	=3	=3	=3	=3	=3	=3
1F	Vi-	2c]	.	0f	Vi-	0a	-go,	0ff	-go,
.	.	2c	-vo	.	.	.	.	.	.
2F	-vo	2A	e-	.	.	.	.	.	.
2.D	e-	1d	.	.	.	.	.	.	.
.	.	.	.	1f	-vo	2r	.	2r	.
4E	.	.	.	.	.	.	.	.	.
2F	.	2c	.	.	.	2a	di-	[2ff	di-
=4	=4	=4	=4	=4	=4	=4	=4	=4	=4
2BB-y	-go,	1B-y	-go,	2.d	e-	2.b-y	.	2ff]	.
2.B-y	e-	.	.	.	.	.	.	2ff	-cit
.	.	.	.	4c	.	4a	.	.	.
.	.	1r	.	4d	.	2f	-cit	1ff	Do-
4A	.	.	.	4e	.	.	.	.	.
2F	.	.	.	1f	.	2a	Do-	.	.
1c	.	1r	.	.	.	2.g	-mi-	1cc	-mi-
.	.	.	.	2e	.	.	.	.	.
.	.	.	.	.	.	4a	.	.	.
=5	=5	=5	=5	=5	=5	=5	=5	=5	=5
1B-y	-go,	2r	.	0f	-go,	1b-y	-nus,	1dd	.
.	.	1d	di-	.	.	.	.	.	.
2r	.	.	.	.	.	2r	.	0dd	-nus,
1B-y	di-	2d	-cit	.	.	1b-y	di-	.	.
.	.	[1d	Do-	2r	.	.	.	.	.
2B-y	-cit	.	.	[2f	di-	2b-y	-cit	.	.
=6	=6	=6	=6	=6	=6	=6	=6	=6	=6
1B-y	Do-	2d]	.	2f]	.	1b-y	Do-	0.r	.
.	.	4c	.	2f	-cit	.	.	.	.
.	.	4B-y	.	.	.	.	.	.	.
2F	.	2c	.	1f	Do-	2a	.	.	.
2D	.	2d	.	.	.	4g	.	.	.
.	.	.	.	.	.	4f	.	.	.
1E	-mi-	1G	-mi-	1c	-mi-	1g	-mi-	.	.
=7	=7	=7	=7	=7	=7	=7	=7	=7	=7
1D	-nus,	1A	-nus,	1d	.	1f	-nus,	0.ff	no-
2r	.	2r	.	0d	-nus,	2r	.	.	.
2D	no-	2A	no-	.	.	1f	no-	.	.
2BB-y	-lo	2B-y	-lo	.	.	.	.	.	.
2D	mor-	2A	mor-	.	.	2f	-lo	.	.
=8	=8	=8	=8	=8	=8	=8	=8	=8	=8
1C	-tem,	1c	-tem,	0.r	.	2a	mor-	0.ee	-lo
.	.	.	.	.	.	2g	-tem,	.	.
2r	.	2r	.	.	.	2r	.	.	.
2C	no-	2G	no-	.	.	1e	no-	.	.
2AA	-lo	2A	-lo	.	.	.	.	.	.
2C	mor-	2G	mor-	.	.	2e	-lo	.	.
=9	=9	=9	=9	=9	=9	=9	=9	=9	=9
1BB-y	-tem,	1B-y	.	0.f	no-	2f	mor-	1dd	mor-
.	.	.	.	.	.	2d	.	.	.
2r	.	1F	-tem,	.	.	[0a	-tem	1cc	-tem
1F	no-	.	.	.	.	.	.	.	.
.	.	1r	.	.	.	.	.	1dd	pec-
2D	-lo	.	.	.	.	.	.	.	.
=10	=10	=10	=10	=10	=10	=10	=10	=10	=10
0.A	mor-	2r	.	0.e	-lo	0a]	.	0cc	-ca-
.	.	1c	no-	.	.	.	.	.	.
.	.	2c	-lo	.	.	.	.	.	.
.	.	1c	mor-	.	.	1r	.	[1a	.
=11	=11	=11	=11	=11	=11	=11	=11	=11	=11
1D	-tem	2A	.	1d	mor-	2r	.	0a]	.
.	.	1A	-tem	.	.	1f	pec-	.	.
1F	pec-	.	.	1c	-tem	.	.	.	.
.	.	2F	pec-	.	.	2f	-ca-	.	.
1BB-y	-ca-	2.F	-ca-	1d	pec-	1f	-to-	1b-y	-to-
.	.	4G	.	.	.	.	.	.	.
=12	=12	=12	=12	=12	=12	=12	=12	=12	=12
1F	-to-	4A	.	0c	-ca-	1f	-ris,	1a	-ris,
.	.	4B-y	.	.	.	.	.	.	.
.	.	4c	.	.	.	.	.	.	.
.	.	4d	.	.	.	.	.	.	.
1C	-ris,	1e	-to-	.	.	2r	.	1g	.
.	.	.	.	.	.	2g	pec-	.	.
1r	.	1c	-ris,	[1A	-to-	2a	-ca-	1r	.
.	.	.	.	.	.	[2a	-to-	.	.
=13	=13	=13	=13	=13	=13	=13	=13	=13	=13
0F	[pec-	2r	.	0A]	.	2a]	.	0.r	.
.	.	1c	pec-	.	.	2f	.	.	.
.	.	.	.	.	.	0f	-ris,	.	.
.	.	2c	-ca-	.	.	.	.	.	.
1BB-y	-ca-	1d	-to-	1B-y	.	.	.	.	.
=14	=14	=14	=14	=14	=14	=14	=14	=14	=14
1F	-to-	0.c	-ris,	1A	-ris,	2r	.	2r	.
.	.	.	.	.	.	1f	sed	1cc	sed
1C	-ris,]	.	.	1G	.	.	.	.	.
.	.	.	.	.	.	2e	ut	2cc	ut
2r	.	.	.	1r	.	2a	ma-	2.cc	ma-
[2c	sed	.	.	.	.	[2g	.	.	.
.	.	.	.	.	.	.	.	4dd	.
=15	=15	=15	=15	=15	=15	=15	=15	=15	=15
2c]	.	1r	.	0.r	.	2g]	.	1ee	.
2c	ut	.	.	.	.	2a	.	.	.
2.d	ma-	1r	.	.	.	2f	-gis	1ff	.
.	.	.	.	.	.	1a	con-	.	.
4c	.	.	.	.	.	.	.	.	.
1B-y	.	1d	sed	.	.	.	.	1dd	-gis
.	.	.	.	.	.	2g	-ver-	.	.
=16	=16	=16	=16	=16	=16	=16	=16	=16	=16
0A	-gis	2e	ut	2r	.	0.a	-ta-	0cc	con-
.	.	1f	ma-	1c	sed	.	.	.	.
.	.	4e	.	2c	ut	.	.	.	.
.	.	4d	.	.	.	.	.	.	.
2r	.	1e	.	2.c	ma-	.	.	[1cc	-ver-
[2A	con-	.	.	.	.	.	.	.	.
.	.	.	.	4d	.	.	.	.	.
=17	=17	=17	=17	=17	=17	=17	=17	=17	=17
2A]	.	0c	-gis,	1e	.	1a	-tur,	1cc]	.
2A	-ver-	.	.	.	.	.	.	.	.
1F	-ta-	.	.	1f	.	1r	.	1a	-ta-
1G	.	1r	.	1d	-gis	2r	.	1b-y	.
.	.	.	.	.	.	[2g	sed	.	.
=18	=18	=18	=18	=18	=18	=18	=18	=18	=18
1C	-tur,	2r	.	0c	con-	2g]	.	0cc	-tur,
.	.	1g	sed	.	.	2g	ut	.	.
2r	.	.	.	.	.	2.e	ma-	.	.
1C	[con-	2g	ut	.	.	.	.	.	.
.	.	.	.	.	.	4f	.	.	.
.	.	2.e	ma-	[1c	-ver-	1g	-gis,	1r	.
2C	-ver-	.	.	.	.	.	.	.	.
.	.	4f	.	.	.	.	.	.	.
=19	=19	=19	=19	=19	=19	=19	=19	=19	=19
1C	-ta-	1g	-gis	1c]	.	2r	.	1r	.
.	.	.	.	.	.	2e	sed	.	.
1F	.	1r	.	1A	-ta-	2c	.	1cc	et
.	.	.	.	.	.	2f	ut	.	.
1G	.	1r	.	1B-y	.	2d	ma-	1b-y	.
.	.	.	.	.	.	2e	.	.	.
=20	=20	=20	=20	=20	=20	=20	=20	=20	=20
[0.F	-tur,]	1r	.	0c	-tur,	1f	-gis	1a	vi-
.	.	1r	.	.	.	2r	.	0a	-vat,
.	.	.	.	.	.	1c	con-	.	.
.	.	1c	con-	1r	.	.	.	.	.
.	.	.	.	.	.	2c	-ver-	.	.
=21	=21	=21	=21	=21	=21	=21	=21	=21	=21
1F]	.	2c	-ver-	1r	.	2.A	-ta-	2r	.
.	.	2.A	-ta-	.	.	.	.	2.cc	et
.	.	.	.	.	.	4B-y	.	.	.
2r	.	.	.	1c	et	2c	.	.	.
.	.	4B-y	.	.	.	.	.	4b-y	.
2F	et	2c	-tur,	.	.	2f	.	1a	vi-
1G	vi-	1r	.	1B-y	.	2.d	.	.	.
.	.	.	.	.	.	.	.	2g	.
.	.	.	.	.	.	4e	.	.	.
=22	=22	=22	=22	=22	=22	=22	=22	=22	=22
2D	-vat,	2r	.	1A	vi-	2f	.	1a	.
2C	[et	2c	et	.	.	2e	.	.	.
1D	vi-	2.F	vi-	0A	-vat,	1f	.	1a	-vat,
.	.	4G	.	.	.	.	.	.	.
1AA	-vat,]	2A	.	.	.	1c	-tur,	2r	.
.	.	2E	-vat,	.	.	.	.	[2cc	et
=23	=23	=23	=23	=23	=23	=23	=23	=23	=23
2r	.	2r	.	2r	.	2r	.	4cc]	.
.	.	.	.	.	.	.	.	4b-y	.
2AA	et	2A	et	2.c	et	2c	et	2a	.
2.C	vi-	2E	vi-	.	.	2.e	vi-	2g	vi-
.	.	.	.	4B-y	.	.	.	.	.
.	.	2A	.	1A	vi-	.	.	2a	.
4D	.	.	.	.	.	4f	.	.	.
1BB-y	.	2D	.	.	.	1d	-vat,	1b-y	.
.	.	2d	.	2G	.	.	.	.	.
=24	=24	=24	=24	=24	=24	=24	=24	=24	=24
1F	-vat,	0c	-vat,	1A	.	1r	.	0.a	-vat,
2r	.	.	.	1A	-vat,	2r	.	.	.
2c	[et	.	.	.	.	2e	et	.	.
2d	vi-	1r	.	2r	.	2f	vi-	.	.
2A	-vat,]	.	.	[2c	et	2e	-vat,	.	.
=25	=25	=25	=25	=25	=25	=25	=25	=25	=25
2r	.	2r	.	4c]	.	2r	.	2r	.
.	.	.	.	4B-y	.	.	.	.	.
2A	et	2c	et	2A	.	2e	et	2cc	et
2B-y	vi-	2d	vi-	2G	vi-	2g	vi-	2b-y	vi-
2F	.	2c	.	2A	.	2f	.	1a	.
1G	-vat,	2.B-y	.	1B-y	.	2.d	-vat,	.	.
.	.	.	.	.	.	.	.	2g	.
.	.	8AL	.	.	.	4e	.	.	.
.	.	8GJ	.	.	.	.	.	.	.
=26	=26	=26	=26	=26	=26	=26	=26	=26	=26
2.D	[et	2d	.	[0.Al	-vat.	1f	.	[0.al	-vat.
.	.	2A	-vat,	.	.	.	.	.	.
4E	.	.	.	.	.	.	.	.	.
2F	.	2r	.	.	.	2c	.	.	.
2C	.	2c	et	.	.	2e	et	.	.
1D	vi-	1F	vi-	.	.	1f	vi-	.	.
=27	=27	=27	=27	=27	=27	=27	=27	=27	=27
00AA	-vat.]	00c	-vat.	00A]	.	00e	-vat.	00a]	.
=28||	=28||	=28||	=28||	=28||	=28||	=28||	=28||	=28||	=28||
*M2/1	*	*M2/1	*	*M2/1	*	*M2/1	*	*M2/1	*
*met(C|)	*	*met(C|)	*	*met(C|)	*	*met(C|)	*	*met(C|)	*
!!section: Secunda pars: Quis scit si convertatur
!!!OMD: Secunda pars: Quis scit si convertatur
0r	.	0r	.	1r	.	0r	.	1a	Quis
.	.	.	.	1e	Quis	.	.	1g	.
=29	=29	=29	=29	=29	=29	=29	=29	=29	=29
1r	.	0r	.	1d	.	0r	.	2a	scit
.	.	.	.	.	.	.	.	2b-y	si
1A	Quis	.	.	2e	scit	.	.	1cc	con-
.	.	.	.	2f	si	.	.	.	.
=30	=30	=30	=30	=30	=30	=30	=30	=30	=30
1G	.	0r	.	1g	con-	0r	.	1b-y	-ver-
2A	scit	.	.	1f	-ver-	.	.	2a	-ta-
2B-y	si	.	.	.	.	.	.	2dd	.
=31	=31	=31	=31	=31	=31	=31	=31	=31	=31
1c	con-	0r	.	2e	-ta-	0r	.	2g	.
.	.	.	.	2a	.	.	.	2cc	.
1B-y	-ver-	.	.	2g	.	.	.	[1dd	.
.	.	.	.	[2f	.	.	.	.	.
=32	=32	=32	=32	=32	=32	=32	=32	=32	=32
1A	-ta-	0r	.	2f]	.	0r	.	2dd]	.
.	.	.	.	4e	.	.	.	4cc	.
.	.	.	.	4d	.	.	.	4b-y	.
1A	-tur	.	.	1e	.	.	.	1cc	.
=33	=33	=33	=33	=33	=33	=33	=33	=33	=33
2r	.	0r	.	1d	-tur	0r	.	[0dd	-tur
1B-y	et	.	.	.	.	.	.	.	.
.	.	.	.	2r	.	.	.	.	.
2G	i-	.	.	[2g	et	.	.	.	.
=34	=34	=34	=34	=34	=34	=34	=34	=34	=34
1B-y	-gno-	0r	.	2g]	.	0r	.	1dd]	.
.	.	.	.	2d	i-	.	.	.	.
1F	-scat,	.	.	1f	-gno-	.	.	2r	.
.	.	.	.	.	.	.	.	[2cc	et
=35	=35	=35	=35	=35	=35	=35	=35	=35	=35
2r	.	0r	.	2c	-scat,	0r	.	2cc]	.
1c	[et	.	.	1e	et	.	.	2a	i-
.	.	.	.	.	.	.	.	1cc	-gno-
2A	i-	.	.	2e	i-	.	.	.	.
=36	=36	=36	=36	=36	=36	=36	=36	=36	=36
1c	-gno-	0r	.	1e	-gno-	0r	.	1g	-scat,
1G	-scat],	.	.	1d	-scat,	.	.	2r	.
.	.	.	.	.	.	.	.	[2b-y	et
=37	=37	=37	=37	=37	=37	=37	=37	=37	=37
2r	.	0r	.	2r	.	0r	.	2b-]	.
1B-y	et	.	.	1d	et	.	.	2g	i-
.	.	.	.	.	.	.	.	1b-y	-gno-
2G	i-	.	.	2d	i-	.	.	.	.
=38	=38	=38	=38	=38	=38	=38	=38	=38	=38
1B-y	-gno-	0r	.	2d	-gno-	0r	.	2f	-scat
.	.	.	.	2d	-scat	.	.	2.ff	De-
1F	-scat	.	.	2.f	De-	.	.	.	.
.	.	.	.	.	.	.	.	4ee	.
.	.	.	.	.	.	.	.	4dd	.
.	.	.	.	4e	.	.	.	4cc	.
=39	=39	=39	=39	=39	=39	=39	=39	=39	=39
1G	De-	0r	.	4d	.	0r	.	2bnXi	.
.	.	.	.	4c	.	.	.	.	.
.	.	.	.	2e	.	.	.	1cc	.
1G	-us	.	.	1d	-us	.	.	.	.
.	.	.	.	.	.	.	.	2bni	.
=40	=40	=40	=40	=40	=40	=40	=40	=40	=40
2r	.	0r	.	2r	.	0r	.	1cc	-us
2A	et	.	.	2c	et	.	.	.	.
2B-y	re-	.	.	2d	.	.	.	1r	.
2d	.	.	.	[2f	re-	.	.	.	.
=41	=41	=41	=41	=41	=41	=41	=41	=41	=41
2.c	-lin-	0r	.	2f]	.	0r	.	2r	.
.	.	.	.	2e	.	.	.	2g	et
4C	.	.	.	.	.	.	.	.	.
2F	.	.	.	2f	-lin-	.	.	2a	.
2A	.	.	.	2c	.	.	.	[2cc	re-
=42	=42	=42	=42	=42	=42	=42	=42	=42	=42
1G	.	0r	.	1d	-quat,	0r	.	2cc]	.
.	.	.	.	.	.	.	.	2bnXi	.
1C	-quat,	.	.	2r	.	.	.	2cc	-lin-
.	.	.	.	2c	et	.	.	2ee	.
=43	=43	=43	=43	=43	=43	=43	=43	=43	=43
0r	.	0r	.	2d	re-	0r	.	2dd	.
.	.	.	.	1f	-lin-	.	.	2cc	.
.	.	.	.	.	.	.	.	2dd	.
.	.	.	.	2e	.	.	.	2ee	.
=44	=44	=44	=44	=44	=44	=44	=44	=44	=44
2r	.	0r	.	2f	.	0r	.	1a	-quat,
2F	et	.	.	2a	.	.	.	.	.
2G	re-	.	.	2g	.	.	.	2r	.
[2B-y	-lin-	.	.	2f	.	.	.	[2dd	et
=45	=45	=45	=45	=45	=45	=45	=45	=45	=45
2B-]	.	0r	.	2g	.	0r	.	2dd]	.
2A	.	.	.	2a	.	.	.	2cc	re-
2B-y	-quat	.	.	2d	.	.	.	1dd	-lin-
2B-y	post	.	.	[2g	.	.	.	.	.
=46	=46	=46	=46	=46	=46	=46	=46	=46	=46
1B-y	se	0r	.	4g]	.	0r	.	2dd	-quat
.	.	.	.	4f	.	.	.	.	.
.	.	.	.	2d	.	.	.	2dd	post
1r	.	.	.	2f	.	.	.	[1cc	se
.	.	.	.	2e	-quat,	.	.	.	.
=47	=47	=47	=47	=47	=47	=47	=47	=47	=47
1A	be-	0r	.	2r	.	0r	.	1cc]	.
.	.	.	.	2e	re-	.	.	.	.
2G	-ne-	.	.	2.g	-lin-	.	.	1r	.
2c	-di-	.	.	.	.	.	.	.	.
.	.	.	.	4f	.	.	.	.	.
=48	=48	=48	=48	=48	=48	=48	=48	=48	=48
2B-y	-cti-	0r	.	2d	.	0r	.	0r	.
1A	-o-	.	.	2e	.	.	.	.	.
.	.	.	.	2f	.	.	.	.	.
2G	.	.	.	2g	.	.	.	.	.
=49	=49	=49	=49	=49	=49	=49	=49	=49	=49
1A	-nem,	0r	.	2c	.	0r	.	1a	be-
.	.	.	.	2A	.	.	.	.	.
1r	.	.	.	2.c	.	.	.	2g	-ne-
.	.	.	.	.	.	.	.	2cc	-di-
.	.	.	.	4B-y	.	.	.	.	.
=50	=50	=50	=50	=50	=50	=50	=50	=50	=50
0r	.	0r	.	2G	.	0r	.	2b-y	-cti-
.	.	.	.	2A	-quat	.	.	1a	-o-
.	.	.	.	1B-y	post	.	.	.	.
.	.	.	.	.	.	.	.	2g	.
=51	=51	=51	=51	=51	=51	=51	=51	=51	=51
2r	.	0r	.	1A	se	0e	Quis	2a	-nem,
2A	be-	.	.	.	.	.	.	2a	be-
2.c	-ne-	.	.	2r	.	.	.	2g	-ne-
.	.	.	.	2e	be-	.	.	2cc	-di-
4B-y	.	.	.	.	.	.	.	.	.
=52	=52	=52	=52	=52	=52	=52	=52	=52	=52
2G	-di-	0r	.	2g	-ne-	0d	.	2b-y	-cti-
2A	-cti-	.	.	1f	.	.	.	1a	-o-
1B-y	-o-	.	.	.	.	.	.	.	.
.	.	.	.	4e	.	.	.	2g	.
.	.	.	.	4d	.	.	.	.	.
=53	=53	=53	=53	=53	=53	=53	=53	=53	=53
1A	-nem.	0A	Quis	2c	-di-	1e	scit	0a	-nem.
.	.	.	.	2c	-cti-	.	.	.	.
1F	Quis	.	.	1c	-o-	1f	si	.	.
=54	=54	=54	=54	=54	=54	=54	=54	=54	=54
1C	scit	0G	.	1c	-nem.	0g	con-	0r	.
1E	si	.	.	2r	.	.	.	.	.
.	.	.	.	2c	Quis	.	.	.	.
=55	=55	=55	=55	=55	=55	=55	=55	=55	=55
2D	con-	1A	scit	1d	scit	0f	-ver-	2r	.
2D	-ver-	.	.	.	.	.	.	2dd	Quis
1D	-ta-	1B-y	si	2r	.	.	.	2dd	scit
.	.	.	.	2d	si	.	.	2dd	si
=56	=56	=56	=56	=56	=56	=56	=56	=56	=56
0C	-tur	0c	con-	2G	con-	1e	-ta-	2ee	con-
.	.	.	.	1g	-ver-	.	.	1cc	.
.	.	.	.	.	.	1e	-tur	.	.
.	.	.	.	4f	.	.	.	4b-y	-ver-
.	.	.	.	4e	.	.	.	4a	.
=57	=57	=57	=57	=57	=57	=57	=57	=57	=57
1r	.	0B-y	-ver-	1.d	-ta-	2r	.	2g	-ta-
.	.	.	.	.	.	1f	et	1a	.
2r	.	.	.	.	.	.	.	.	.
2G	et	.	.	2G	.	2d	i-	2g	.
=58	=58	=58	=58	=58	=58	=58	=58	=58	=58
2D	i-	1A	-ta-	2d	.	1f	-gno-	0a	-tur
2.F	-gno-	.	.	2c	.	.	.	.	.
.	.	1A	-tur	2f	-tur	1c	-scat	.	.
4G	.	.	.	.	.	.	.	.	.
2A	.	.	.	2e	et	.	.	.	.
=59	=59	=59	=59	=59	=59	=59	=59	=59	=59
1G	-scat	2r	.	1g	i-	0d	De-	1r	.
.	.	1B-y	et	.	.	.	.	.	.
2r	.	.	.	2G	.	.	.	2r	.
[2G	De-	2G	i-	[2B-y	-gno-	.	.	[2dd	et
=60	=60	=60	=60	=60	=60	=60	=60	=60	=60
2G]	.	1B-y	-gno-	2B-]	.	1d	-us	2dd]	.
4F	.	.	.	4A	.	.	.	2dd	i-
4E	.	.	.	4G	.	.	.	.	.
1D	.	1F	-scat	2A	.	1r	.	1ff	-gno-
.	.	.	.	2B-y	.	.	.	.	.
=61	=61	=61	=61	=61	=61	=61	=61	=61	=61
0C	-us	0G	De-	1c	-scat	0r	.	2ee	-scat
.	.	.	.	.	.	.	.	2.ee	De-
.	.	.	.	2r	.	.	.	.	.
.	.	.	.	.	.	.	.	4dd	.
.	.	.	.	2c	De-	.	.	[2cc	.
=62	=62	=62	=62	=62	=62	=62	=62	=62	=62
1r	.	1G	-us	1d	.	1r	.	2cc]	.
.	.	.	.	.	.	.	.	2b-y	.
2r	.	1r	.	2.e	.	1c	et	1cc	.
2A	et	.	.	.	.	.	.	.	.
.	.	.	.	4f	.	.	.	.	.
=63	=63	=63	=63	=63	=63	=63	=63	=63	=63
2G	re-	0r	.	2g	-us	2d	re-	2b-y	.
2F	.	.	.	1c	.	1f	-lin-	2a	.
1G	-lin-	.	.	.	.	.	.	1b-y	-us
.	.	.	.	2B-y	.	2e	.	.	.
=64	=64	=64	=64	=64	=64	=64	=64	=64	=64
1D	-quat,	1r	.	2r	.	2f	-quat	2r	.
.	.	.	.	2.d	et	2f	post	2a	et
2r	.	1F	et	.	.	1f	se	2.a	re-
.	.	.	.	4e	.	.	.	.	.
2D	et	.	.	2f	re-	.	.	.	.
.	.	.	.	.	.	.	.	4b-y	.
=65	=65	=65	=65	=65	=65	=65	=65	=65	=65
2C	re-	2G	re-	2e	-lin-	1r	.	2cc	-lin-
2BB-y	.	1B-y	-lin-	2d	.	.	.	1dd	.
1C	-lin-	.	.	2G	.	1e	be-	.	.
.	.	2A	.	2c	.	.	.	2cc	.
=66	=66	=66	=66	=66	=66	=66	=66	=66	=66
2GG	-quat	2B-y	-quat	2B-y	.	1d	-ne-	2dd	-quat,
1G	post	2B-y	post	2G	-quat	.	.	1b-y	.
.	.	1B-y	se	[1d	post	1g	-di-	.	.
4F	.	.	.	.	.	.	.	4a	.
4E	.	.	.	.	.	.	.	4g	.
=67	=67	=67	=67	=67	=67	=67	=67	=67	=67
1D	se	1r	.	1d]	.	1f	-cti-	2.a	.
.	.	.	.	.	.	.	.	4b-y	.
2AA	.	1A	be-	1c	se	2e	-o-	1cc	.
[2C	be-	.	.	.	.	[2e	-nem,	.	.
=68	=68	=68	=68	=68	=68	=68	=68	=68	=68
2C]	.	1G	-ne-	1r	.	2e]	.	2r	.
2BB-y	-ne-	.	.	.	.	2d	.	2dd	re-
2AA	-di-	1c	-di-	2r	.	1e	.	2cc	-lin-
2C	-cti-	.	.	2e	be-	.	.	[2a	-quat
=69	=69	=69	=69	=69	=69	=69	=69	=69	=69
2D	-o-	1B-y	-cti-	2f	.	0r	.	2a]	.
2E	.	.	.	4e	.	.	.	2g	post
.	.	.	.	4d	.	.	.	.	.
4F	.	2A	-o-	2c	.	.	.	1a	se
4E	.	.	.	.	.	.	.	.	.
4D	.	[2A	-nem,	2d	-ne-	.	.	.	.
4C	.	.	.	.	.	.	.	.	.
=70	=70	=70	=70	=70	=70	=70	=70	=70	=70
2D	.	2A]	.	2A	-di-	1r	.	2r	.
2BB-y	.	2G	.	2B-y	-cti-	.	.	1dd	be-
1AA	-nem,	1A	.	1c	-o-	1e	be-	.	.
.	.	.	.	.	.	.	.	2cc	-ne-
=71	=71	=71	=71	=71	=71	=71	=71	=71	=71
1r	.	0r	.	2B-y	.	2d	-ne-	1dd	-di-
.	.	.	.	2G	.	2g	-di-	.	.
1D	be-	.	.	2A	.	1f	-cti-	1dd	-cti-
.	.	.	.	2B-y	.	.	.	.	.
=72	=72	=72	=72	=72	=72	=72	=72	=72	=72
1C	-ne-	1r	.	1c	-nem,	0e	-o-	2.ee	-o-
.	.	.	.	.	.	.	.	4dd	.
2.AA	-di-	1A	be-	2r	.	.	.	4cc	.
.	.	.	.	.	.	.	.	4b-y	.
.	.	.	.	[2c	be-	.	.	[2cc	.
4BB-y	.	.	.	.	.	.	.	.	.
=73	=73	=73	=73	=73	=73	=73	=73	=73	=73
1C	-cti-	2G	-ne-	4c]	.	1e	-nem.	4cc]	.
.	.	.	.	4d	-ne-	.	.	4b-y	.
.	.	2c	-di-	2e	-di-	.	.	1a	.
2D	-o-	1B-y	-cti-	2d	-cti-	1r	.	.	.
2E	-nem,	.	.	2G	-o-	.	.	2g	.
=74	=74	=74	=74	=74	=74	=74	=74	=74	=74
2r	.	0A	-o-	1c	-nem,	[0el	-nem.	1a	-nem,
1AA	[be-	.	.	.	.	.	.	.	.
.	.	.	.	2c	be-	.	.	2r	.
2AA	-ne-	.	.	[2c	-ne-	.	.	[2cc	be-
=75	=75	=75	=75	=75	=75	=75	=75	=75	=75
2AA	-di-	1A	-nem.	4c]	.	0e_	.	2cc]	.
.	.	.	.	4B-y	.	.	.	.	.
2AA	-cti-	.	.	1A	.	.	.	2cc	-ne-
1C	-o-	1r	.	.	.	.	.	2cc	-di-
.	.	.	.	2G	.	.	.	2cc	-cti-
=76	=76	=76	=76	=76	=76	=76	=76	=76	=76
[0AAl	-nem.]	[0Al	-nem.	2.A	-di-	0e_	.	1.cc	-o-
.	.	.	.	4B-y	-cti-	.	.	.	.
.	.	.	.	1c	-o-	.	.	.	.
.	.	.	.	.	.	.	.	2a	.
=77	=77	=77	=77	=77	=77	=77	=77	=77	=77
00AA]	.	00A]	.	00cl	-nem.	00e]	.	00al	-nem.
==	==	==	==	==	==	==	==	==	==
*-	*-	*-	*-	*-	*-	*-	*-	*-	*-
!!!system-decoration: [*]
!!!RDF**kern: i = editorial accidental
!!!RDF**kern: l = terminal long
!!!!PTL: <i> New Senfl Edition: Motets for Five Voices</i>
!!!PPR: Hollitzer Verlag
!!!PC#: Denkmäler der Tonkunst in Österreich 163.3
!!!PDT: 2022
!!!PED: Scott Lee Edwards, Stefan Gasch, and Sonja Tröster
!!!YEC: Copyright 2022 Denkmäler der Tonkunst in Österreich
!!!YEM: CC-BY-NC 4.0 (https://creativecommons.org/licenses/by-nc/4.0/legalcode)
!!!EED: Benjamin Ory
!!!EEV: 2024/12/3
!!!verovio: header encoded
!!!header-left: @{PTL}\n@{PED}, eds.\n@{PC#} (@{PDT})&nbsp;\n
!!!header-right:
!!!header-center: